Sedona/img/social/fb_peace.svg

<svg width="12" height="22" fill="none" xmlns="http://www.w3.org/2000/svg">
  <path d="M12 4V0H8a4 4 0 0 0-4 4v4H0v4h4v10h4V12h4V8H8V4h4Z" fill="#fff"/>
</svg>

<svg width="12" height="22" viewBox="0 0 12 22" fill="none" xmlns="http://www.w3.org/2000/svg">
<path d="M12 4V0H8C5.79086 0 4 1.79086 4 4V8H0V12H4V22H8V12H12V8H8V4H12Z" fill="white"/>
</svg>
